images/logomark.svg

<?xml version="1.0" encoding="UTF-8" standalone="no"?>
<!-- Created with Inkscape (http://www.inkscape.org/) -->

<svg
   xmlns:dc="http://purl.org/dc/elements/1.1/"
   xmlns:cc="http://creativecommons.org/ns#"
   xmlns:rdf="http://www.w3.org/1999/02/22-rdf-syntax-ns#"
   xmlns:svg="http://www.w3.org/2000/svg"
   xmlns="http://www.w3.org/2000/svg"
   xmlns:sodipodi="http://sodipodi.sourceforge.net/DTD/sodipodi-0.dtd"
   xmlns:inkscape="http://www.inkscape.org/namespaces/inkscape"
   version="1.1"
   width="32"
   height="32"
   id="svg2"
   inkscape:version="0.48.4 r9939"
   sodipodi:docname="logomark.svg">
  <sodipodi:namedview
     pagecolor="#ffffff"
     bordercolor="#666666"
     borderopacity="1"
     objecttolerance="10"
     gridtolerance="10"
     guidetolerance="10"
     inkscape:pageopacity="0"
     inkscape:pageshadow="2"
     inkscape:window-width="1105"
     inkscape:window-height="682"
     id="namedview7"
     showgrid="false"
     inkscape:zoom="7.375"
     inkscape:cx="16"
     inkscape:cy="16"
     inkscape:window-x="1"
     inkscape:window-y="30"
     inkscape:window-maximized="0"
     inkscape:current-layer="svg2" />
  <defs
     id="defs4" />
  <metadata
     id="metadata7">
    <rdf:RDF>
      <cc:Work
         rdf:about="">
        <dc:format>image/svg+xml</dc:format>
        <dc:type
           rdf:resource="http://purl.org/dc/dcmitype/StillImage" />
        <dc:title />
      </cc:Work>
    </rdf:RDF>
  </metadata>
  <path
     style="fill:#333333;fill-opacity:1;stroke:none"
     id="path2993"
     inkscape:connector-curvature="0"
     d="m 15.907755,1.8825992 c -7.731986,0 -13.9999999,6.2680146 -13.9999999,13.9999968 0,7.732001 6.2680139,14.000004 13.9999999,14.000004 7.731986,0 14,-6.268003 14,-14.000004 0,-7.7319822 -6.268014,-13.9999968 -14,-13.9999968 z m 0,1.1666665 c 5.878481,0 10.833848,3.9525959 12.353542,9.3449983 -1.308912,2.699774 -3.171403,5.130526 -5.439584,7.094796 -1.089607,0.9436 -2.279239,1.784795 -3.593333,2.377083 -1.314094,0.592287 -2.759501,0.928345 -4.198541,0.845833 -1.08118,-0.06201 -2.149212,-0.363183 -3.096042,-0.888125 2.509272,-1.359691 4.773341,-3.172565 6.626667,-5.343338 1.216484,-1.424853 2.280817,-3.044151 2.690625,-4.872291 0.204904,-0.914068 0.239627,-1.8713618 0.04812,-2.7883325 C 21.10771,7.9029189 20.683742,7.0290857 20.042131,6.3465567 19.415315,5.6797689 18.592451,5.207444 17.710255,4.9640569 16.828059,4.7206728 15.889249,4.7018282 14.989005,4.8663486 13.188517,5.1953894 11.58101,6.2418017 10.291714,7.5409314 8.0191402,9.8308352 6.6142107,13.061932 6.8719218,16.277805 c 0.1288552,1.607934 0.6676974,3.187951 1.5910417,4.51063 0.2061039,0.295225 0.4326878,0.57645 0.6752084,0.842916 -1.3451165,0.47075 -2.7378736,0.805846 -4.1504167,0.994583 -1.2127646,-1.959649 -1.9133334,-4.269415 -1.9133334,-6.743338 0,-7.0876527 5.7456788,-12.8333303 12.8333332,-12.8333303 z m 0.08167,2.5929161 c 0.902132,0.00117 1.810394,0.2743329 2.530209,0.8181249 0.648517,0.4899328 1.129049,1.1869401 1.401458,1.9527079 0.272408,0.7657678 0.342317,1.5973474 0.249375,2.4047914 -0.185884,1.614891 -1.00055,3.095872 -1.984791,4.389582 -1.742724,2.290677 -4.059152,4.124084 -6.635418,5.407505 -0.263701,0.131367 -0.531581,0.256229 -0.800625,0.37625 C 10.189055,20.500589 9.7085803,19.918743 9.3423385,19.270304 8.5770641,17.915349 8.3246972,16.305799 8.4731719,14.756763 8.6216465,13.207731 9.1532359,11.714791 9.8673385,10.332181 10.695309,8.7291083 11.823903,7.2106511 13.403797,6.339265 14.193744,5.9035734 15.087289,5.6409597 15.989422,5.6421818 z M 28.62588,14.16468 c 0.07519,0.561983 0.115209,1.135356 0.115209,1.717916 0,7.087651 -5.745679,12.833337 -12.833334,12.833337 -3.980499,0 -7.5379609,-1.812066 -9.8918748,-4.656457 1.4529025,-0.329992 2.8729377,-0.803979 4.2349998,-1.407292 0.59564,0.453629 1.253455,0.825679 1.952709,1.09375 2.013714,0.772012 4.299952,0.660304 6.337917,-0.04521 2.037964,-0.705513 3.845179,-1.971841 5.420625,-3.444583 1.876763,-1.754439 3.459122,-3.822335 4.663749,-6.091463 z" />
</svg>

<svg xmlns="http://www.w3.org/2000/svg" width="32" height="32"><path d="M15.908 1.883c-7.732 0-14 6.268-14 14s6.268 14 14 14 14-6.268 14-14-6.268-14-14-14zm0 1.166c5.878 0 10.834 3.95 12.353 9.34-1.305 2.7-3.17 5.13-5.435 7.096-1.09.943-2.28 1.784-3.594 2.376-1.314.592-2.76.928-4.2.846-1.08-.063-2.15-.364-3.094-.89 2.51-1.36 4.773-3.172 6.626-5.342 1.22-1.425 2.28-3.045 2.69-4.873.208-.914.24-1.87.05-2.788-.19-.918-.614-1.79-1.256-2.474-.627-.666-1.45-1.14-2.332-1.382-.88-.243-1.82-.262-2.72-.098-1.8.33-3.41 1.376-4.697 2.675-2.273 2.29-3.678 5.522-3.42 8.738.13 1.608.668 3.188 1.59 4.51.207.296.434.577.676.843-1.345.473-2.74.808-4.15.997-1.213-1.96-1.914-4.27-1.914-6.743 0-7.09 5.744-12.834 12.832-12.834zm.08 2.59c.904 0 1.812.274 2.532.82.648.49 1.13 1.184 1.4 1.95.273.766.343 1.597.25 2.405-.185 1.615-1 3.096-1.984 4.39-1.743 2.29-4.06 4.123-6.636 5.407-.263.13-.53.256-.8.376-.56-.49-1.04-1.07-1.408-1.72-.765-1.356-1.017-2.965-.87-4.514.15-1.55.68-3.042 1.395-4.425.828-1.603 1.957-3.12 3.537-3.993.79-.437 1.683-.7 2.585-.7zm12.638 8.522c.075.562.115 1.135.115 1.718 0 7.088-5.742 12.834-12.83 12.834-3.98 0-7.54-1.812-9.89-4.657 1.452-.33 2.872-.805 4.234-1.408.597.452 1.254.824 1.954 1.092 2.013.772 4.3.66 6.338-.045 2.037-.706 3.845-1.97 5.42-3.445 1.877-1.754 3.46-3.822 4.664-6.09z" fill="#333"/></svg>
